FINK
CUT[IST EDEL GLEICH DAS REBENNASS]
REG[Europa, Mitteleuropa, Deutschland]
KEY[F0698  16  F 2/4]
MEL[-5_  -6_-5_-4#_-5_  1_.-7-6_
    -5_  -4_-4_-3_-4_  2_.-7-5_
    -4_  -3_-5_-6_-7_  1__
    -5_-5_  -6_.-5-4_-3_  -2___
    -7__-5_-5_  -6_.-5-6_-7_  -5___
    -7__-5_-5_  -6_.-5-6_-7_  -5_
    -5_1_.-5  -6_-4_-3_-2_  -3_
    -5_1_.-5  -6_2_1_-7_  1__0_ //] >>
FCT[Geselligkeits -, Bundes -, Trink - Lied]
